lib/preview/nrk-logo-preview-nrk-finnmark-title-below-on-light.svg

<svg width="74" height="41" viewBox="0 0 74 41" fill="none" xmlns="http://www.w3.org/2000/svg">
<path d="M0 17.9975V5.99862H4V17.9975H0ZM9.24381 7.90831L11.5081 17.9975H7.19917L4.49549 5.99862H6.91217C7.46635 5.99143 8.00406 6.18678 8.4245 6.54792C8.84562 6.89391 9.08495 7.37423 9.24381 7.90831ZM12 17.9975V5.99862H16V17.9975H12ZM19.0105 10.5616C18.5862 10.5658 18.1687 10.4548 17.8025 10.2405C17.4412 10.0316 17.1411 9.73149 16.9323 9.37013C16.7178 9.00386 16.6068 8.58629 16.611 8.16185C16.6061 7.73999 16.7172 7.32491 16.9323 6.96195C17.1433 6.60452 17.4431 6.30762 17.8025 6.10005C18.1689 5.88603 18.5862 5.77504 19.0105 5.77891C19.4322 5.77437 19.8471 5.88546 20.2102 6.10005C20.566 6.30944 20.8626 6.60609 21.072 6.96195C21.2868 7.32501 21.3979 7.74002 21.3933 8.16185C21.3973 8.58625 21.2863 9.00375 21.072 9.37013C20.8649 9.7299 20.5679 10.0298 20.2102 10.2405C19.8471 10.4555 19.4324 10.5666 19.0105 10.5616ZM22 17.9975V5.99862H26V17.9975H22ZM30.9737 12.5558C30.9848 12.5674 31.0693 12.7054 31.2272 12.9698C31.3851 13.2342 31.5906 13.5722 31.8439 13.9838C32.0974 14.3952 32.3649 14.8318 32.6463 15.2935C32.9278 15.7553 33.1926 16.1919 33.4408 16.6033C33.6881 17.0147 33.9697 17.4795 34.2857 17.9975H29.9598C29.6893 17.5581 29.4441 17.161 29.2245 16.8061C29.0048 16.4512 28.7713 16.0681 28.5238 15.6569C28.2758 15.246 28.0306 14.8461 27.7882 14.457C27.5458 14.0679 27.3375 13.7271 27.1633 13.4346C26.9883 13.1418 26.8671 12.9446 26.7997 12.8431C26.6325 12.591 26.5336 12.2998 26.5127 11.9981C26.5294 11.7085 26.6226 11.4285 26.7828 11.1866C26.8503 11.074 26.9743 10.874 27.1545 10.5867C27.3348 10.2994 27.546 9.95858 27.7882 9.56425C28.0304 9.16992 28.2756 8.76713 28.5238 8.3559C28.772 7.94467 29.0055 7.55876 29.2245 7.19823C29.4445 6.83808 29.6897 6.43811 29.9598 5.99834H34.2857L30.9396 11.457C30.8361 11.6191 30.7777 11.8059 30.7706 11.9981C30.7818 12.1998 30.8528 12.3938 30.9737 12.5558Z" fill="#0A2343"/>
<g clip-path="url(#clip0_5919_2961)">
<path d="M0 23.0006H7.91011V24.488H1.7747V28.5782H6.49035L6.30443 30.0487H1.7747V35.001H0V23.0006ZM11.0454 22.671C10.8708 22.5639 10.6764 22.5104 10.4623 22.5104C10.2482 22.5104 10.051 22.5639 9.87074 22.671C9.69046 22.778 9.54679 22.9189 9.43974 23.0935C9.3327 23.2682 9.27917 23.4626 9.27917 23.6767C9.27917 23.8907 9.3327 24.0879 9.43974 24.2682C9.54679 24.4485 9.69046 24.5894 9.87074 24.6908C10.051 24.7922 10.2482 24.8429 10.4623 24.8429C10.6764 24.8429 10.8708 24.7922 11.0454 24.6908C11.2201 24.5894 11.3581 24.4485 11.4595 24.2682C11.5609 24.0879 11.6116 23.8907 11.6116 23.6767C11.6116 23.4626 11.5609 23.2682 11.4595 23.0935C11.3581 22.9189 11.2201 22.778 11.0454 22.671ZM9.56651 35.001H11.2905V26.212L9.56651 26.4655V35.001ZM20.5528 26.55C20.1246 26.3134 19.5837 26.195 18.9302 26.195C18.4457 26.195 17.964 26.2711 17.4851 26.4232C17.0062 26.5753 16.5527 26.7923 16.1245 27.074C15.9611 27.181 15.8033 27.2993 15.6512 27.4204V26.212L13.9272 26.4655V35.001H15.6512V28.581C15.8174 28.4853 15.9864 28.3951 16.1667 28.3162C16.409 28.2092 16.6512 28.1162 16.8935 28.0374C17.1358 27.9585 17.378 27.8993 17.6203 27.8599C17.8626 27.8205 18.0964 27.8007 18.3217 27.8007C18.6372 27.8007 18.9077 27.843 19.133 27.9275C19.3584 28.012 19.5443 28.1388 19.6908 28.3078C19.8373 28.4768 19.9443 28.6909 20.0119 28.9501C20.0795 29.2092 20.1133 29.5135 20.1133 29.8628V35.001H21.8373V29.5078C21.8373 28.7416 21.7303 28.1162 21.5162 27.6317C21.3021 27.1472 20.981 26.7866 20.5528 26.55ZM31.0151 26.55C30.5869 26.3134 30.0461 26.195 29.3925 26.195C28.908 26.195 28.4263 26.2711 27.9474 26.4232C27.4685 26.5753 27.015 26.7923 26.5868 27.074C26.4234 27.181 26.2656 27.2993 26.1135 27.4204V26.212L24.3895 26.4655V35.001H26.1135V28.581C26.2769 28.4853 26.4488 28.3951 26.629 28.3162C26.8713 28.2092 27.1136 28.1162 27.3558 28.0374C27.5981 27.9585 27.8403 27.8993 28.0826 27.8599C28.3249 27.8205 28.5587 27.8007 28.784 27.8007C29.0995 27.8007 29.37 27.843 29.5953 27.9275C29.8207 28.012 30.0066 28.1388 30.1531 28.3078C30.2996 28.4768 30.4066 28.6909 30.4742 28.9501C30.5418 29.2092 30.5756 29.5135 30.5756 29.8628V35.001H32.2996V29.5078C32.2996 28.7416 32.1926 28.1162 31.9785 27.6317C31.7644 27.1472 31.4433 26.7866 31.0151 26.55ZM46.5311 26.55C46.1255 26.3134 45.624 26.195 45.0268 26.195C44.5648 26.195 44.1198 26.2711 43.6916 26.4232C43.2634 26.5753 42.8577 26.7923 42.4746 27.074C42.2662 27.2261 42.0662 27.3979 41.8746 27.581C41.6774 27.1331 41.3901 26.7923 41.0042 26.5669C40.5985 26.3303 40.0915 26.212 39.483 26.212C39.0323 26.212 38.59 26.288 38.1562 26.4401C37.7224 26.5922 37.3139 26.8063 36.9308 27.0824C36.8097 27.1697 36.6913 27.2655 36.5758 27.3641V26.212L34.8518 26.4655V35.001H36.5758V28.5726C36.7815 28.4402 36.9928 28.3162 37.2097 28.2148C37.4857 28.0853 37.7646 27.9867 38.0463 27.919C38.328 27.8514 38.5984 27.8176 38.8576 27.8176C39.1506 27.8176 39.3957 27.8599 39.5928 27.9444C39.79 28.0289 39.9562 28.1529 40.0915 28.3162C40.2267 28.4796 40.3253 28.6937 40.3872 28.9585C40.4492 29.2233 40.4802 29.5304 40.4802 29.8797V35.001H42.2042V29.5247C42.2042 29.1726 42.1817 28.8515 42.1394 28.5585C42.3394 28.4289 42.5394 28.3106 42.7451 28.2064C43.0155 28.0712 43.2916 27.9698 43.5733 27.9021C43.855 27.8345 44.131 27.8007 44.4015 27.8007C44.6719 27.8007 44.9254 27.843 45.1282 27.9275C45.3311 28.012 45.5001 28.136 45.6353 28.2993C45.7705 28.4627 45.8691 28.6768 45.9311 28.9416C45.993 29.2064 46.024 29.5135 46.024 29.8628V35.001H47.748V29.5078C47.748 28.7416 47.6466 28.1162 47.4438 27.6317C47.241 27.1472 46.9367 26.7866 46.5311 26.55ZM57.8554 33.9192C57.9456 33.908 58.0413 33.8854 58.1427 33.8516L57.9568 34.9841C57.9005 35.0066 57.8357 35.0263 57.7625 35.0432C57.6892 35.0601 57.6075 35.0798 57.5174 35.1024C57.4272 35.1249 57.3343 35.139 57.2385 35.1446C57.1427 35.1503 57.0441 35.1531 56.9427 35.1531C56.5821 35.1531 56.261 35.0939 55.9793 34.9756C55.6976 34.8573 55.4779 34.6657 55.3201 34.4009C55.2356 34.2601 55.1764 34.0939 55.137 33.9023C55.03 34.0263 54.9201 34.1474 54.8046 34.2573C54.4947 34.5503 54.1398 34.7756 53.7398 34.9334C53.3398 35.0911 52.8637 35.17 52.3116 35.17C51.7144 35.17 51.2158 35.0573 50.8157 34.832C50.4157 34.6066 50.1171 34.3108 49.9199 33.9446C49.7228 33.5784 49.6242 33.1812 49.6242 32.753C49.6242 32.3023 49.7509 31.8882 50.0044 31.5107C50.258 31.1332 50.6439 30.8206 51.1622 30.5727C51.6806 30.3248 52.3341 30.1783 53.1229 30.1332L55.0976 30.0008V29.5783C55.0976 29.2515 55.0666 28.967 54.999 28.7247C54.9314 28.4824 54.8187 28.2824 54.6609 28.1247C54.5032 27.9669 54.2863 27.8486 54.0102 27.7697C53.7341 27.6909 53.3933 27.6514 52.9877 27.6514C52.7623 27.6514 52.5341 27.6599 52.3031 27.6768C52.0721 27.6937 51.8383 27.7247 51.6017 27.7697C51.3651 27.8148 51.12 27.8712 50.8665 27.9388C50.6129 28.0064 50.3453 28.0909 50.0636 28.1923L50.2664 26.7556C50.5481 26.643 50.8439 26.5444 51.1538 26.4598C51.4637 26.3753 51.7932 26.3105 52.1426 26.2655C52.4919 26.2204 52.8468 26.1979 53.2074 26.1979C53.7032 26.1979 54.1483 26.2429 54.5426 26.3331C54.937 26.4232 55.2779 26.5528 55.5652 26.7218C55.8525 26.8908 56.0863 27.0993 56.2666 27.3472C56.4469 27.5951 56.5821 27.8824 56.6723 28.2092C56.7624 28.536 56.8075 28.8965 56.8075 29.2909L56.7737 32.7727C56.7624 33.1896 56.8244 33.4882 56.9596 33.6685C57.0948 33.8488 57.3146 33.939 57.6188 33.939C57.6864 33.939 57.7653 33.9333 57.8554 33.9221V33.9192ZM55.0863 32.9079L55.0948 31.2318H53.6158C53.0637 31.2318 52.6243 31.2769 52.2975 31.367C51.9707 31.4572 51.7341 31.598 51.5876 31.7896C51.4411 31.9812 51.3679 32.246 51.3679 32.584C51.3679 32.8432 51.4242 33.0657 51.5369 33.2516C51.6496 33.4375 51.8158 33.5812 52.0355 33.6826C52.2552 33.784 52.5228 33.8347 52.8384 33.8347C53.0862 33.8347 53.3257 33.8122 53.5567 33.7671C53.7877 33.7221 54.0074 33.6488 54.2159 33.5474C54.4243 33.446 54.6215 33.322 54.8074 33.1756C54.906 33.0967 54.999 33.0065 55.0891 32.9108L55.0863 32.9079ZM63.2809 26.319C62.9654 26.4035 62.6668 26.5331 62.3851 26.7077C62.1034 26.8824 61.8386 27.0937 61.5907 27.3416C61.5513 27.381 61.5119 27.4261 61.4724 27.4683V26.2091L59.7484 26.4627V34.9982H61.4724V28.612C61.602 28.5219 61.7344 28.4374 61.8696 28.3641C62.0443 28.2684 62.2189 28.1867 62.3936 28.1191C62.5682 28.0514 62.7457 27.9923 62.926 27.9416C63.1063 27.8909 63.295 27.8543 63.4922 27.8317C63.6894 27.8092 63.895 27.8036 64.1091 27.8148L64.312 26.226C63.9401 26.2035 63.5964 26.2345 63.2809 26.319ZM71.0896 34.9982H73.3207L69.222 30.3783L73.2362 26.3782H71.1235L68.2304 29.5557H67.6078V22.24L65.8839 22.4935V35.001H67.6078V30.86H67.636L71.0896 35.001V34.9982Z" fill="#1767CE"/>
</g>
<defs>
<clipPath id="clip0_5919_2961">
<rect width="74" height="14" fill="white" transform="translate(0 22)"/>
</clipPath>
</defs>
</svg>

<svg xmlns="http://www.w3.org/2000/svg" viewBox="0 0 74 41"><path fill="#0A2343" d="M0 17.997V6h4v11.998H0ZM9.244 7.908l2.264 10.09H7.2l-2.704-12h2.417a2.276 2.276 0 0 1 1.513.55c.42.346.66.826.819 1.36ZM12 17.998v-12h4v12h-4Zm7.01-7.436a2.382 2.382 0 0 1-2.4-2.4 2.301 2.301 0 0 1 .322-1.2A2.41 2.41 0 0 1 20.21 6.1c.356.21.653.506.862.862.215.363.326.778.321 1.2a2.35 2.35 0 0 1-.321 1.208 2.4 2.4 0 0 1-.862.87 2.3 2.3 0 0 1-1.2.322ZM22 17.997V6h4v11.998h-4Zm8.974-5.441c.01.011.095.15.253.414s.364.602.617 1.014a315.936 315.936 0 0 1 1.597 2.62c.247.41.529.876.845 1.393H29.96c-.27-.439-.516-.836-.736-1.19-.22-.356-.453-.739-.7-1.15-.248-.411-.493-.81-.736-1.2-.242-.39-.45-.73-.625-1.022-.175-.293-.296-.49-.363-.592a1.747 1.747 0 0 1-.287-.845c.016-.29.11-.57.27-.811.067-.113.191-.313.371-.6a182.106 182.106 0 0 0 1.37-2.23l.7-1.159.736-1.2h4.326l-3.346 5.459a1.08 1.08 0 0 0-.17.541c.012.202.083.396.204.558Z"/><g clip-path="url(#a)"><path fill="#1767CE" d="M0 23h7.91v1.488H1.775v4.09H6.49l-.186 1.47h-4.53v4.953H0v-12Zm11.045-.329a1.093 1.093 0 0 0-.583-.16c-.214 0-.411.053-.591.16-.18.107-.324.248-.431.422-.107.175-.16.37-.16.584 0 .214.053.41.16.591.107.18.25.321.43.423.181.101.378.152.592.152.214 0 .409-.05.583-.152.175-.102.313-.242.415-.423.1-.18.152-.377.152-.591 0-.214-.051-.409-.152-.584a1.19 1.19 0 0 0-.415-.422Zm-1.478 12.33h1.723v-8.789l-1.723.253v8.536Zm10.986-8.451c-.428-.237-.97-.355-1.623-.355a4.75 4.75 0 0 0-1.445.228 5.49 5.49 0 0 0-1.36.651 6.356 6.356 0 0 0-.474.346v-1.208l-1.724.253v8.536h1.724v-6.42c.166-.096.335-.186.516-.265.242-.107.484-.2.726-.279a4.87 4.87 0 0 1 .727-.177c.243-.04.476-.06.702-.06.315 0 .586.043.811.127.225.085.411.212.558.38.146.17.253.384.32.643.069.26.102.564.102.913V35h1.724v-5.493c0-.766-.107-1.392-.32-1.876-.215-.485-.536-.845-.964-1.082Zm10.462 0c-.428-.237-.969-.355-1.623-.355a4.75 4.75 0 0 0-1.445.228 5.49 5.49 0 0 0-1.36.651 6.356 6.356 0 0 0-.474.346v-1.208l-1.723.253v8.536h1.723v-6.42c.164-.096.336-.186.516-.265.242-.107.485-.2.727-.279a4.87 4.87 0 0 1 .727-.177c.242-.04.476-.06.701-.06.316 0 .586.043.811.127.226.085.412.212.558.38.147.17.254.384.321.643.068.26.102.564.102.913V35H32.3v-5.493c0-.766-.107-1.392-.321-1.876-.215-.485-.536-.845-.964-1.082Zm15.516 0c-.405-.237-.907-.355-1.504-.355a3.96 3.96 0 0 0-1.335.228c-.429.152-.834.37-1.217.651a5.964 5.964 0 0 0-.6.507c-.198-.448-.485-.789-.87-1.014-.407-.237-.913-.355-1.522-.355-.45 0-.893.076-1.327.228a4.809 4.809 0 0 0-1.58.924v-1.152l-1.724.253v8.536h1.724v-6.428a5.44 5.44 0 0 1 .634-.358c.276-.13.555-.228.836-.296.282-.068.552-.101.812-.101.293 0 .538.042.735.126.197.085.363.209.498.372.136.164.234.378.296.643.062.264.093.571.093.92v5.122h1.724v-5.476c0-.352-.022-.673-.065-.966.2-.13.4-.248.606-.353a3.87 3.87 0 0 1 .828-.304c.282-.068.558-.101.828-.101.27 0 .524.042.727.127.203.084.372.208.507.371.136.164.234.378.296.643.062.264.093.572.093.92v5.139h1.724v-5.493c0-.766-.101-1.392-.304-1.876-.203-.485-.507-.845-.913-1.082Zm11.324 7.37c.09-.012.186-.035.288-.068l-.186 1.132a1.336 1.336 0 0 1-.194.06 13.24 13.24 0 0 0-.246.058c-.09.023-.183.037-.279.043a4.983 4.983 0 0 1-.295.008c-.36 0-.682-.06-.964-.177a1.365 1.365 0 0 1-.659-.575 1.58 1.58 0 0 1-.183-.499 4.98 4.98 0 0 1-.332.355c-.31.293-.665.519-1.065.676-.4.158-.876.237-1.428.237-.598 0-1.096-.113-1.496-.338a2.227 2.227 0 0 1-.896-.887 2.475 2.475 0 0 1-.296-1.192c0-.45.127-.865.38-1.242.254-.378.64-.69 1.158-.938.519-.248 1.172-.395 1.96-.44l1.976-.132v-.423c0-.326-.031-.611-.099-.853a1.337 1.337 0 0 0-.338-.6c-.158-.158-.375-.276-.65-.355a3.78 3.78 0 0 0-1.023-.119c-.226 0-.454.009-.685.026a6.157 6.157 0 0 0-.701.093 9.934 9.934 0 0 0-1.538.423l.202-1.437c.282-.113.578-.212.888-.296.31-.085.64-.15.989-.195.349-.045.704-.067 1.064-.067.496 0 .941.045 1.336.135.394.09.735.22 1.022.389.288.169.521.377.702.625.18.248.315.535.405.862.09.327.136.688.136 1.082l-.034 3.482c-.012.417.05.715.186.895.135.18.355.271.659.271.067 0 .146-.006.236-.017v-.003Zm-2.769-1.012.009-1.676h-1.48c-.551 0-.99.045-1.318.135-.326.09-.563.231-.71.423-.146.191-.22.456-.22.794 0 .26.057.482.17.668.113.185.279.33.498.43.22.102.488.153.803.153.248 0 .488-.023.719-.068.23-.045.45-.118.659-.22a2.762 2.762 0 0 0 .873-.637l-.003-.002Zm8.195-6.589a3.325 3.325 0 0 0-.896.389 4.411 4.411 0 0 0-.794.634c-.04.039-.08.084-.119.126V26.21l-1.724.254v8.535h1.724v-6.386a4.247 4.247 0 0 1 .922-.493c.174-.068.352-.127.532-.177a3.605 3.605 0 0 1 1.183-.127l.203-1.589a3.218 3.218 0 0 0-1.031.093Zm7.809 8.68h2.23l-4.098-4.62 4.014-4h-2.112l-2.894 3.177h-.622V22.24l-1.724.254V35h1.724V30.86h.028l3.454 4.141v-.003Z"/></g><defs><clipPath id="a"><path fill="#fff" d="M0 22h74v14H0z"/></clipPath></defs></svg>
